X:1
T:Sweet Adeline (My Adeline)
C:Henry W. Armstrong
M:3/4
L:1/4
Q:1/4=138
K:G
G2 B | d3 | d c B | A3 | A2 c | d3 | d c B | G3 |
G2 B | d3 | c B A | A3 | B2 c | d c B | A G F | G3 |]
